!!!COA:	Josquin des Prez
!!!CDT:	~1450-1521/08/27
!!!OTL:	Domine ne in furore
!!!AGN:	Motet
!!!SCT:	NJE 16.8
!!!SCA:	New Josquin Edition 16.8
!!!voices:	4
**kern	**kern	**kern	**kern
*staff4	*staff3	*staff2	*staff1
*Ivox	*Ivox	*Ivox	*Ivox
*I"Bassus	*I"Tenor	*I"Altus	*I"Discantus
*I'B	*I'T	*I'A	*I'D
*>[A,B]	*>[A,B]	*>[A,B]	*>[A,B]
*>A	*>A	*>A	*>A
*clefF4	*clefGv2	*clefGv2	*clefG2
*k[]	*k[]	*k[]	*k[]
*M2/1	*M2/1	*M2/1	*M2/1
*met(C|)	*met(C|)	*met(C|)	*met(C|)
=1-	=1-	=1-	=1-
0r	0r	0r	1.e
.	.	.	2e/
=2	=2	=2	=2
0r	0r	1.A	1e
.	.	.	1r
.	.	2A/	.
=3	=3	=3	=3
0r	0r	1A	1.a
.	.	1r	.
.	.	.	2a/
=4	=4	=4	=4
0r	0r	1.d	1a
.	.	.	2r
.	.	2d\	2a/
=5	=5	=5	=5
0r	0r	1d	2a/
.	.	.	2b\
.	.	2r	2cc\
.	.	2d\	2a/
=6	=6	=6	=6
0r	0r	2d\	1b
.	.	2e\	.
.	.	2f\	1a
.	.	2d\	.
=7	=7	=7	=7
0r	0r	1e	1cc
.	.	1d	2b\
.	.	.	[2a/
=8	=8	=8	=8
0r	0r	1f	2a/]
.	.	.	4g/
.	.	.	4f/
.	.	2e\	2g/
.	.	[2d\	2a/
=9	=9	=9	=9
0r	0r	4d\]	4d/
.	.	4c\	4e/
.	.	4d\	4f/
.	.	4e\	4g/
.	.	2f\	4a/
.	.	.	4b\
.	.	[2e\	2cc\
=10	=10	=10	=10
0r	1.E	4e\]	2b\
.	.	4d\	.
.	.	2c\	1a
.	.	1B	.
.	2E/	.	2g/
=11	=11	=11	=11
1.AA	1E	4A/	2.cc\
.	.	4B\	.
.	.	4c\	.
.	.	4d\	4b\
.	1r	4e\	4a/
.	.	4c\	4g/
2AA/	.	2f\	[2a/
=12	=12	=12	=12
1AA	1.A	2e\	2a/]
.	.	1d	4g/
.	.	.	4f/
1r	.	.	1e
.	2A/	2c#i\	.
=13	=13	=13	=13
1.D	1A	0d	1d
.	2r	.	1r
2D\	2A/	.	.
=14	=14	=14	=14
1D	2A/	0r	0r
.	2B\	.	.
2r	2c\	.	.
2D\	2A/	.	.
=15	=15	=15	=15
2D\	1B	0r	0r
2E\	.	.	.
2F\	1A	.	.
2D\	.	.	.
=16	=16	=16	=16
1E	1c	0r	0r
1D	2B\	.	.
.	[2A/	.	.
=17	=17	=17	=17
1F	2A/]	0r	0r
.	4G/	.	.
.	4F/	.	.
2E\	2G/	.	.
[2D\	2A/	.	.
=18	=18	=18	=18
4D\]	4D/	0r	0r
4C/	4E/	.	.
4D\	4F/	.	.
4E\	4G/	.	.
2F\	4A/	.	.
.	4B\	.	.
[2E\	2c\	.	.
=19	=19	=19	=19
4E\]	2B\	0r	0r
4D\	.	.	.
2C/	1A	.	.
1BB	.	.	.
.	2G#i/	.	.
=20	=20	=20	=20
1AA	1A	1r	1r
[1E	1r	[1e	[1g
=21	=21	=21	=21
1E]	0B	1e]	1g]
[1E	.	[1e	1g
=22	=22	=22	=22
1E]	0B	1e]	1g
1G	.	1d	2g/
.	.	.	2g/
=23	=23	=23	=23
2F\	1d	1.f	0a
2D\	.	.	.
1F	2c\	.	.
.	2A/	2c\	.
=24	=24	=24	=24
2E\	1c	1e	0g
2E\	.	.	.
2G\	2B\	[1d	.
2G\	[2B\	.	.
=25	=25	=25	=25
1F	4B\]	1d]	2r
.	8A/L	.	.
.	8G/J	.	.
.	2A/	.	1a
1E	1B	2r	.
.	.	[2e\	2g/
=26	=26	=26	=26
1r	0r	2e\]	2e/
.	.	2d\	2.f/
2r	.	2B\	.
.	.	.	4e/
[2A\	.	[2c\	2e/
=27	=27	=27	=27
2A\]	0r	2c\]	4e/
.	.	.	8d/L
.	.	.	8c/J
2G\	.	4B\	2d/
.	.	4A/	.
2E\	.	2A/	2e/
[2F\	.	[2c\	[2a/
=28	=28	=28	=28
2F\]	2r	4c\]	2a/]
.	.	8B/L	.
.	.	8A/J	.
4E\	1e	2B\	2g/
4D\	.	.	.
2C/	.	2c\	2e/
2D\	2d\	2A/	[2f/
=29	=29	=29	=29
1E	2B\	2r	4f/]
.	.	.	4e/
.	2.c\	1e	1g
2C/	.	.	.
.	4B\	.	.
2D\	[2A/	2d\	2f/
=30	=30	=30	=30
1E	2A/]	2B\	1e
.	2G/	2.c\	.
2AA/	1A	.	2r
.	.	4B\	.
[2F\	.	4A/	[2a/
.	.	4G/	.
=31	=31	=31	=31
2F\]	0r	2F/	2a/]
2E\	.	2G/	2g/
2C/	.	2A/	2e/
[2D\	.	4F/	[2f/
.	.	4G/	.
=32	=32	=32	=32
2D\]	1.A	4A/	4f/]
.	.	4B\	4e/
2C/	.	1c	1e
1F	.	.	.
.	2A/	4B\	2d/
.	.	4A/	.
=33	=33	=33	=33
0E	1B	1G	0e
.	1G	1r	.
=34	=34	=34	=34
1AA	1.c	0r	1r
1r	.	.	[1e
.	2B\	.	.
=35	=35	=35	=35
0r	2A/	0r	2e/]
.	2G/	.	2e/
.	1A	.	1f
=36	=36	=36	=36
0r	2F/	0r	1d
.	2.G/	.	.
.	.	.	[1g
.	4F/	.	.
.	4E/	.	.
.	4D/	.	.
=37	=37	=37	=37
0r	2E/	1r	2g/]
.	2F/	.	2f/
.	[1G	[1B	2e/
.	.	.	2d/
=38	=38	=38	=38
1.E	1G]	2B\]	0e
.	.	2B\	.
.	1r	1c	.
2E\	.	.	.
=39	=39	=39	=39
1F	0r	1A	0r
1D	.	[1d	.
=40	=40	=40	=40
1.G	0r	2d\]	0r
.	.	2c\	.
.	.	2B\	.
2F\	.	2A/	.
=41	=41	=41	=41
2E\	1r	0B	1r
2D\	.	.	.
[1E	[1e	.	[1g
=42	=42	=42	=42
1E]	2e\]	0r	2g/]
.	2e\	.	2g/
1r	1e	.	1g
=43	=43	=43	=43
0r	2c\	0r	1a
.	2.d\	.	.
.	.	.	2f/
.	4c\	.	.
.	4B\	.	[2g/
.	4A/	.	.
=44	=44	=44	=44
0r	1B	0r	4g/]
.	.	.	4f/
.	.	.	4e/
.	.	.	4d/
.	1c	.	1e
=45	=45	=45	=45
1r	1B	1G	0d
[1G	2r	2G/	.
.	[2d\	2G/	.
=46	=46	=46	=46
2G\]	2d\]	1B	2r
2G\	2d\	.	2g/
1G	2d\	1B	2g/
.	2B\	.	2g/
=47	=47	=47	=47
1F	2.c\	2A/	1a
.	.	2.c\	.
.	4d\	.	.
2E\	2e\	.	2g/
.	.	4B\	.
[2F\	[2d\	4A/	[2a/
.	.	4G/	.
=48	=48	=48	=48
4F\]	4d\]	2F/	4a/]
4E\	4c\	.	4g/
4D\	1c	1G	4f/
4C/	.	.	4e/
1D	.	.	1f
.	2B\	2F/	.
=49	=49	=49	=49
2.C/	1c	[0G	[0e
4D\	.	.	.
[1E	2r	.	.
.	2B\	.	.
=50	=50	=50	=50
1E]	2B\	0G]	0e]
.	2G/	.	.
2r	2B\	.	.
2E\	2c\	.	.
=51	=51	=51	=51
2F\	2A/	2r	1r
2D\	2.d\	2A/	.
2.G\	.	2B\	2r
.	4c\	.	.
.	2B\	2G/	2e/
4F\	.	.	.
=52	=52	=52	=52
2D\	2A/	1d	2f/
2F\	2A/	.	2d/
1E	2B\	[1e	[1g
.	2G/	.	.
=53	=53	=53	=53
0r	1.c	2e\]	2g/]
.	.	2c\	2e/
.	.	1c	1e
.	2A/	.	.
=54	=54	=54	=54
2r	1A	2c\	0r
2F\	.	2c\	.
2F\	2r	2A/	.
2D\	2A/	[2d\	.
=55	=55	=55	=55
1G	2B\	2d\]	2r
.	2G/	4c\	2e/
.	.	4B\	.
1F	1A	2c\	2f/
.	.	2d\	2d/
=56	=56	=56	=56
0E	1B	0e	1.g
.	[1G	.	.
.	.	.	2e/
=57	=57	=57	=57
1.C	1G]	1r	1e
.	[1c	[1e	[1g
2C/	.	.	.
=58	=58	=58	=58
0C	2c\]	2e\]	2g/]
.	2c\	2e\	2g/
.	1c	1e	1g
=59	=59	=59	=59
0r	0r	2c\	1a
.	.	1d	.
.	.	.	1b
.	.	[2e\	.
=60	=60	=60	=60
0r	0r	2e\]	2.cc\
.	.	4A/	.
.	.	4B\	4b\
.	.	4c\	2a/
.	.	4d\	.
.	.	[2e\	2g/
=61	=61	=61	=61
1r	1r	2e\]	1f
.	.	2d\	.
[1C	2r	1e	[1e
.	[2G/	.	.
=62	=62	=62	=62
2C/]	2G/]	2r	1e]
2C/	2G/	2.c\	.
1C	2G/	.	1r
.	.	4c\	.
.	2E/	2c\	.
=63	=63	=63	=63
1D	1F	2A/	0r
.	.	1B	.
1E	1G	.	.
.	.	[2c\	.
=64	=64	=64	=64
2.F\	2.A/	4c\]	0r
.	.	4A/	.
.	.	2c\	.
4E\	4G/	.	.
2D\	2F/	2B\	.
2C/	[2E/	[2A/	.
=65	=65	=65	=65
1BB	2E/]	2A/]	0r
.	2D/	2G#i/	.
[1AA	1E	1A	.
=66	=66	=66	=66
1AA]	1.A	1.c	1.e
[1C	.	.	.
.	2G/	2c\	2e/
=67	=67	=67	=67
2C/]	1G	1c	1e
2C/	.	.	.
1C	1r	2r	[1e
.	.	2G/	.
=68	=68	=68	=68
1C	1r	2A/	1e]
.	.	1c	.
1G	2r	.	1d
.	2G/	2B\	.
=69	=69	=69	=69
2.F\	2A/	1c	0f
.	1c	.	.
4E\	.	.	.
1D	.	1d	.
.	2B\	.	.
=70	=70	=70	=70
[0C	2c\	1G	0e
.	2G/	.	.
.	2A/	1r	.
.	[2c\	.	.
=71	=71	=71	=71
0C]	2c\]	1G	1r
.	4B\	.	.
.	4A/	.	.
.	2G/	1c	1e
.	2A/	.	.
=72	=72	=72	=72
2r	0E	2c\	1.g
2C/	.	2c\	.
1G	.	[1B	.
.	.	.	2g/
=73	=73	=73	=73
2G\	2r	1B]	1g
2G\	2G/	.	.
1F	1c	4A/	1a
.	.	4B\	.
.	.	4c\	.
.	.	4d\	.
=74	=74	=74	=74
1E	2c\	0e	2g/
.	2c\	.	2.a/
2r	1B	.	.
.	.	.	8g#i/L
.	.	.	8f#i/J
2E\	.	.	2g#i/
=75	=75	=75	=75
2F\	2A/	1r	1a
2D\	2A/	.	.
2.G\	2B\	2r	1r
.	2G/	2d\	.
4F\	.	.	.
=76	=76	=76	=76
2E\	1.c	2e\	1r
1F	.	2c\	.
.	.	1f	2r
2D\	[2d\	.	2a/
=77	=77	=77	=77
1G	2d\]	1g	2b\
.	2.e\	.	2g/
2.A\	.	2c\	2.cc\
.	4d\	.	.
.	[2c\	[2e\	.
4G\	.	.	4b\
=78	=78	=78	=78
2E\	4c\]	4e\]	2g/
.	4B\	4d\	.
2F\	4A/	1c	1a
.	4G/	.	.
1D	1F	.	.
.	.	2B\	4g/
.	.	.	4f/
=79	=79	=79	=79
0C	2.G/	0c	0e
.	4F/	.	.
.	2G/	.	.
.	[2A/	.	.
=80	=80	=80	=80
0C	2A/]	1c	0e
.	4G/	.	.
.	4F/	.	.
.	1E	1G	.
=81	=81	=81	=81
1GG	1G	1.B-	1d
[1D	1F	.	[1f
.	.	2A/	.
=82	=82	=82	=82
2D\]	1.A	2F/	2f/]
2C/	.	1c	2e/
1C	.	.	[1e
.	2G/	4B\	.
.	.	4A/	.
=83	=83	=83	=83
1E	1G	1B	1e]
[1F	1r	1A	1c
=84	=84	=84	=84
1F]	1A	1r	1d
1E	2B\	1G	1e
.	2c\	.	.
=85	=85	=85	=85
0D	1d	1A	0f
.	2D/	1B	.
.	2F/	.	.
=86	=86	=86	=86
1C	2G/	0c	[0e
.	2G/	.	.
1AA	1A	.	.
=87	=87	=87	=87
[0E	[0G	0B	0e]
=88	=88	=88	=88
0E]	0G]	2r	2r
.	.	1e	1g
.	.	2e\	2g/
=89	=89	=89	=89
0r	0r	2f\	2a/
.	.	2d\	2b\
.	.	2e\	2cc\
.	.	2f\	2a/
=90	=90	=90	=90
2r	2r	0g	0b
1E	1G	.	.
2E\	2G/	.	.
=91	=91	=91	=91
2F\	2A/	0r	0r
2D\	2B\	.	.
2E\	2c\	.	.
2F\	2A/	.	.
=92	=92	=92	=92
0G	1B	1r	0r
.	2r	1d	.
.	2B\	.	.
=93	=93	=93	=93
2r	1d	1f	1a
2D\	.	.	.
1A	2c\	2e\	1cc
.	2A/	2c\	.
=94	=94	=94	=94
2.G\	2.B\	2.d\	2b\
.	.	.	2g/
4F\	4c\	4e\	.
2D\	1d	1f	2.a/
2D\	.	.	.
.	.	.	4b\
=95	=95	=95	=95
1A	2c\	2e\	1cc
.	2A/	2c\	.
1G	2.B\	2d\	1b
.	.	2e\	.
.	4c\	.	.
=96	=96	=96	=96
2.F\	2d\	1f	2a/
.	2c\	.	1cc
4E\	.	.	.
2.C/	2e\	2.g\	.
.	4d\	.	4b\
4D\	4c\	4f\	4a/
=97	=97	=97	=97
2E\	2B\	2e\	2g/
2F\	2A/	2d\	1a
1E	1B	[1e	.
.	.	.	2g#i/
=98	=98	=98	=98
0AA	0A	1e]	0a
.	.	[1c	.
=99	=99	=99	=99
0F	1r	1c]	0a
.	[1c	1A	.
=100	=100	=100	=100
1C	1c]	1c	1e
1E	1G	1B	1g
=101	=101	=101	=101
0D	1B-	2r	0f
.	.	2d\	.
.	1A	2d\	.
.	.	2d\	.
=102	=102	=102	=102
0r	0r	2.e\	2r
.	.	.	2g/
.	.	4d\	.
.	.	2c\	2g/
.	.	2B\	2g/
=103	=103	=103	=103
0r	0r	2A/	2.a/
.	.	2.d\	.
.	.	.	4g/
.	.	.	2f/
.	.	4c\	.
.	.	[2c\	2e/
=104	=104	=104	=104
2r	0r	2c\]	2d/
2G\	.	4B\	2.g/
.	.	4A/	.
2G\	.	1B	.
.	.	.	4f/
2G\	.	.	4d/
.	.	.	4e/
=105	=105	=105	=105
2.A\	2r	2c\	4f/
.	.	.	4g/
.	2c\	1F	2.a/
4G\	.	.	.
2F\	2c\	.	.
.	.	.	4g/
2E\	2c\	2G/	[2g/
=106	=106	=106	=106
1D	2.d\	1A	2g/]
.	.	.	2f#i/
.	4c\	.	.
[1E	2.B\	[1G	1g
.	4A/	.	.
=107	=107	=107	=107
2E\]	2G/	2G/]	0r
2D\	2F/	2.A/	.
2C/	2E/	.	.
.	.	4G/	.
2BB/	[2D/	[2G/	.
=108	=108	=108	=108
1AA	2D/]	2G/]	0r
.	2C/	2F#i/	.
1GG	1D	[1G	.
=109	=109	=109	=109
1.C	1r	1G]	1.e
.	[1G	[1c	.
2C/	.	.	2e/
=110	=110	=110	=110
1C	2G/]	2c\]	1e
.	2G/	2c\	.
1C	1G	1c	1e
=111	=111	=111	=111
2GG/	1G	1B	2d/
2GG/	.	.	2d/
[1D	2F/	2A/	[1f
.	2F/	2A/	.
=112	=112	=112	=112
1D]	0A	1d	1f]
1AA	.	1c	1e
=113	=113	=113	=113
2r	1G	2r	2r
2C/	.	2c\	1e
1C	2r	1c	.
.	2G/	.	2e/
=114	=114	=114	=114
2GG/	1G	1B	2d/
2GG/	.	.	2d/
1D	2F/	1A	1f
.	2F/	.	.
=115	=115	=115	=115
1AA	1A	1c	0e
[1E	1G	2B\	.
.	.	[2B\	.
=116	=116	=116	=116
1E]	2r	2B\]	2r
.	2G/	2B\	1e
1C	2G/	1c	.
.	[2A/	.	2e/
=117	=117	=117	=117
1D	2A/]	1A	1f
.	2F/	.	.
1GG	1G	1B	2d/
.	.	.	[2e/
=118	=118	=118	=118
0AA	1.E	1A	4e/]
.	.	.	4d/
.	.	.	4c/
.	.	.	4B/
.	.	2r	1c
.	4D/	2A/	.
.	4C/	.	.
=119	=119	=119	=119
1GG	0G	2B\	[0d
.	.	2G/	.
2r	.	[1B	.
2G\	.	.	.
=120	=120	=120	=120
2G\	1r	2B\]	0d_
2F\	.	2A/	.
[1B-	2r	1G	.
.	2G/	.	.
=121	=121	=121	=121
2B-\]	2G/	0r	0d]
2A\	2F/	.	.
[1G	[1B-	.	.
=122	=122	=122	=122
2G\]	2B-\]	0r	2r
2F\	2A/	.	2d/
1E	2.G/	.	2d/
.	.	.	2c/
.	8F/L	.	.
.	8G/J	.	.
=123	=123	=123	=123
1D	2A/	2r	1.f
.	2B-i\	2d\	.
1r	1A	2d\	.
.	.	2c\	2e/
=124	=124	=124	=124
2r	2.D/	1.f	4d/
.	.	.	4e/
2D\	.	.	4f/
.	4E/	.	4g/
2D\	2F/	.	4a/
.	.	.	4b\
2C/	2G/	2e\	[2cc\
=125	=125	=125	=125
2.F\	1A	2c\	4cc\]
.	.	.	4b\
.	.	1f	4a/
4E\	.	.	4g/
2D\	2B\	.	4f/
.	.	.	4d/
2C/	2c\	2e\	[2g/
=126	=126	=126	=126
1D	1A	2.d\	2g/]
.	.	.	2f/
.	.	4c\	.
[1GG	1G	1B	2g/
.	.	.	2d/
=127	=127	=127	=127
1GG]	2D/	2r	2.g/
.	2.G/	2G/	.
.	.	.	4a/
1r	.	1d	2b\
.	4F/	.	.
.	2D/	.	[2a/
=128	=128	=128	=128
0r	2F/	1d	2a/]
.	2G/	.	4g/
.	.	.	4f/
.	1A	2c\	[1e
.	.	2A/	.
=129	=129	=129	=129
1C	1G	2c\	1e]
.	.	2c\	.
1G	2r	1B	1d
.	2G/	.	.
=130	=130	=130	=130
1G	1d	1B	2r
.	.	.	2d/
2F\	1d	[1A	1a
2D\	.	.	.
=131	=131	=131	=131
2F\	2c\	1A]	1a
2F\	2A/	.	.
1E	2c\	1r	2g/
.	2c\	.	2e/
=132	=132	=132	=132
1E	1B	1r	2g/
.	.	.	2g/
[1D	1B	2r	1f
.	.	2d\	.
=133	=133	=133	=133
1D]	0A	1d	1f
2r	.	2c\	[1e
2A\	.	2A/	.
=134	=134	=134	=134
1A	2r	2c\	1e]
.	2e\	2c\	.
2G\	1e	1B	1r
2E\	.	.	.
=135	=135	=135	=135
2G\	2d\	1B	1r
2G\	2B\	.	.
2.F\	2d\	[1A	2r
.	2d\	.	2a/
4E\	.	.	.
=136	=136	=136	=136
1F	1c	1A]	1a
1E	1c	1r	2g/
.	.	.	2e/
=137	=137	=137	=137
1E	2B\	1e	2g/
.	2G/	.	2g/
1F	2A/	1c	1f
.	[2c\	.	.
=138	=138	=138	=138
1D	2c\]	1d	1f
.	2B\	.	.
2C/	2.c\	2G/	1e
[2C/	.	[2c\	.
.	4B\	.	.
=139	=139	=139	=139
2C/]	1G	2c\]	1e
2C/	.	2c\	.
1D	1r	2B\	1f
.	.	[2A/	.
=140	=140	=140	=140
1BB	1r	4A/]	1d
.	.	8G#i/L	.
.	.	8F#i/J	.
.	.	2G#i/	.
[1AA	[1c	[1A	2c/
.	.	.	[2cc\
=141	=141	=141	=141
1AA]	2c\]	1A]	2cc\]
.	2c\	.	2cc\
1r	1d	1r	2b\
.	.	.	[2a/
=142	=142	=142	=142
0r	1B	2r	4a/]
.	.	.	8g#i/L
.	.	.	8f#i/J
.	.	1d	2g#i/
.	[1A	.	[1a
.	.	2c\	.
=143	=143	=143	=143
2r	0A_	1f	1a]
1D	.	.	.
.	.	2.e\	1r
2C/	.	.	.
.	.	4d\	.
=144	=144	=144	=144
1F	1A]	2.c\	2r
.	.	.	1a
.	.	8B/L	.
.	.	8A/J	.
1E	1r	1B	.
.	.	.	2g/
=145	=145	=145	=145
2AA/	2r	2A/	1cc
2C/	1A	2e\	.
2D\	.	2d\	1b
2E\	2G/	2B\	.
=146	=146	=146	=146
2AA/	1c	1e	2r
2C/	.	.	2e/
2D\	1B	2d\	2f/
[2E\	.	[2B\	[2g/
=147	=147	=147	=147
4E\]	2G/	2B\]	4g/]
4D\	.	.	4f/
4C/	1A	1c	4e/
4BB/	.	.	4d/
2AA/	.	.	2e/
[2E\	4G/	2B\	[2g/
.	4F/	.	.
=148	=148	=148	=148
2E\]	2G/	2c\	2g/]
2D\	2A/	2d\	2.f/
2E\	2G/	2B\	.
.	.	.	4e/
2AA/	2E/	[2c\	[2e/
=149	=149	=149	=149
1.A	1F	2c\]	2e/]
.	.	4B\	2d/
.	.	4A/	.
.	[1E	1B	[1e
4G\	.	.	.
4F\	.	.	.
=150	=150	=150	=150
4G\	1E]	0r	0e_
4F\	.	.	.
4E\	.	.	.
4D\	.	.	.
2.C/	1r	.	.
4D\	.	.	.
=151	=151	=151	=151
0E	1E	1G	1e]
.	1G	1B	1r
=152	=152	=152	=152
2r	1A	1c	1e
2AA/	.	.	.
1E	1G	1B	1g
=153	=153	=153	=153
1F	1r	2r	1a
.	.	2A/	.
1E	2r	1e	2g/
.	2G/	.	2g/
=154	=154	=154	=154
2r	1d	1f	2.a/
2D\	.	.	.
.	.	.	4b\
1A	1e	2e\	2cc\
.	.	2c\	[2a/
=155	=155	=155	=155
1B-	1d	2.d\	4a/]
.	.	.	8g/L
.	.	.	8f/J
.	.	.	2g/
.	.	4e\	.
1A	2r	2f\	1a
.	[2c\	[2e\	.
=156	=156	=156	=156
1A	2c\]	4e\]	1cc
.	.	4d\	.
.	2A/	4e\	.
.	.	4c\	.
2G\	2B\	4d\	2b\
.	.	4e\	.
[2A\	[2c\	[2f\	[2a/
=157	=157	=157	=157
4A\]	4c\]	4f\]	2a/]
4G\	4B\	4e\	.
2E\	1B	1e	2g/
1F	.	.	1a
.	2A/	2d\	.
=158	=158	=158	=158
0E	2.c\	1e	1g#
.	8B/L	.	.
.	8A/J	.	.
.	1B	2r	1r
.	.	2e\	.
=159	=159	=159	=159
2r	1A	2e\	1cc
2A\	.	2e\	.
2A\	2r	1e	2cc\
2A\	2e\	.	2cc\
=160	=160	=160	=160
1A	2e\	1c	1cc
.	2e\	.	.
1E	1e	[1g	1b
=161	=161	=161	=161
1.G	1B	2g\]	1.b
.	.	2g\	.
.	[1d	1g	.
2G\	.	.	2b\
=162	=162	=162	=162
1G	2d\]	2d\	1b
.	2d\	2G/	.
1D	1d	2A/	2a/
.	.	2B\	2d/
=163	=163	=163	=163
2r	1A	2c\	2e/
2D\	.	2A/	2f/
2E\	2r	2G/	2g/
2F\	2A/	2c\	2f/
=164	=164	=164	=164
2G\	2B\	2B\	2d/
2E\	2c\	4A/	2.g/
.	.	4G/	.
1D	1d	1A	.
.	.	.	8f#i/L
.	.	.	8e/J
.	.	.	2f#i/
=165	=165	=165	=165
1r	1B	2G/	2g/
.	.	2B\	2d/
2r	1A	2c\	2e/
2D\	.	2d\	2f/
=166	=166	=166	=166
2.E\	2r	2G/	2g/
.	2G/	1g	2e/
4F\	.	.	.
2G\	2B\	.	2d/
2E\	2B\	2g\	2g/
=167	=167	=167	=167
1D	1d	1f	2a/
.	.	.	2b\
2.A\	2c\	2e\	2.cc\
.	[2A/	2c\	.
4G\	.	.	4b\
=168	=168	=168	=168
2F\	4A/]	2d\	2a/
.	4B\	.	.
2E\	4c\	2e\	2g/
.	4A/	.	.
2D\	2d\	1f	2a/
[2A\	2c\	.	[2cc\
=169	=169	=169	=169
2A\]	2r	1e	2cc\]
2E\	2G/	.	2b\
2A\	2A/	[1el	2cc\
2G\	2B\	.	2b\
=170	=170	=170	=170
2E\	1c	0e_	2g/
1A	.	.	1cc
.	2A/	.	.
2G\	2B\	.	2b\
=171	=171	=171	=171
1A	1.c	0e_	1a
[1El	.	.	[1gl
.	4B\	.	.
.	4A/	.	.
=172	=172	=172	=172
0E]	1B	0e]	0g]
.	1Bl	.	.
!!LO:LB:i:g=z
=173||	=173||	=173||	=173||
*>B	*>B	*>B	*>B
*clefF4	*clefGv2	*clefGv2	*clefG2
*k[]	*k[]	*k[]	*k[]
*M2/1	*M2/1	*M2/1	*M2/1
*met(C|)	*met(C|)	*met(C|)	*met(C|)
!!section: Discedite a me
!!!OMD: Discedite a me
0r	0r	0r	1e
.	.	.	[1g
=174	=174	=174	=174
0r	0r	0r	2g/]
.	.	.	2a/
.	.	.	1b
=175	=175	=175	=175
0r	0r	1A	1.cc
.	.	[1c	.
.	.	.	2b\
=176	=176	=176	=176
0r	0r	2c\]	1a
.	.	2d\	.
.	.	1e	2g/
.	.	.	[2e/
=177	=177	=177	=177
0r	1E	1.g	4e/]
.	.	.	4f/
.	.	.	4g/
.	.	.	4a/
.	[1G	.	4b\
.	.	.	4cc\
.	.	2f\	[2dd\
=178	=178	=178	=178
0r	2G/]	1e	4dd\]
.	.	.	4cc\
.	2A/	.	2.cc\
.	1B	1d	.
.	.	.	4b\
.	.	.	[2b\
=179	=179	=179	=179
1AA	1.c	1.e	4b\]
.	.	.	4a/
.	.	.	2.a/
[1C	.	.	.
.	.	.	4g/
.	2B\	2d\	2g/
=180	=180	=180	=180
2C/]	1A	1c	4g/
.	.	.	4f/
2D\	.	.	2f/
1E	1G	1B	1g
=181	=181	=181	=181
1.F	2.c\	1r	2r
.	.	.	2c/
.	4B\	.	.
.	2A/	2r	2d/
2E\	[2G/	2G/	2e/
=182	=182	=182	=182
1D	2G/]	2A/	2.f/
.	2F/	2B\	.
.	.	.	4f/
1C	1G	2.c\	2e/
.	.	.	2c/
.	.	4c\	.
=183	=183	=183	=183
0r	2r	1B	2d/
.	2G/	.	2e/
.	2A/	1r	2.f/
.	2B\	.	.
.	.	.	4f/
=184	=184	=184	=184
2r	2.c\	1r	1e
2C/	.	.	.
.	4c\	.	.
2D\	1B	2r	2r
2E\	.	2G/	2e/
=185	=185	=185	=185
2.F\	1r	2A/	2.c/
.	.	2B\	.
4F\	.	.	4d/
2E\	1G	2.c\	4e/
.	.	.	4f/
4C/	.	.	[2g/
4D\	.	4c\	.
=186	=186	=186	=186
4E\	2.G/	1B	2g/]
4F\	.	.	.
1G	.	.	4f/
.	4A/	.	4e/
.	4B\	2G/	[1d
.	4c\	.	.
2F\	[2d\	2A/	.
=187	=187	=187	=187
2G\	4d\]	2B\	2d/]
.	4c\	.	.
2E\	1c	1G	2e/
1D	.	.	1f
.	2B\	2F/	.
=188	=188	=188	=188
0C	0c	1G	[0e
.	.	[1G	.
=189	=189	=189	=189
1.C	1.c	2G/]	0e]
.	.	2G/	.
.	.	1G	.
2C/	2c\	.	.
=190	=190	=190	=190
0C	0c	2r	1.e
.	.	2G/	.
.	.	2A/	.
.	.	[2c\	2e/
=191	=191	=191	=191
0r	2r	2c\]	[0e
.	2G/	2B\	.
.	2A/	2A/	.
.	[2c\	2A/	.
=192	=192	=192	=192
2r	2c\]	1G	0e]
2G\	2B\	.	.
2A\	2A/	1r	.
[2c\	2A/	.	.
=193	=193	=193	=193
2c\]	1G	1d	2r
2B\	.	.	2g/
2A\	1r	1e	2a/
2A\	.	.	[2cc\
=194	=194	=194	=194
1G	2r	1.g	2cc\]
.	2G/	.	2b\
1D	1A	.	2a/
.	.	2f\	2a/
=195	=195	=195	=195
1E	1c	2e\	1g
.	.	2e\	.
1G	2B\	1d	1g
.	2G/	.	.
=196	=196	=196	=196
1.F	2.c\	1r	1a
.	4B\	.	.
.	2A/	1c	1cc
2E\	2G/	.	.
=197	=197	=197	=197
1D	1F	2d\	2b\
.	.	2f\	1a
1C	2.c\	2f\	.
.	.	2e\	2g/
.	4B\	.	.
=198	=198	=198	=198
1D	4A/	2.d\	1f
.	4G/	.	.
.	1A	.	.
.	.	4c\	.
1E	.	1B	1e
.	2G#i/	.	.
=199	=199	=199	=199
2.AA/	1A	1c	1r
4BB/	.	.	.
4C/	1E	1r	[1e
4D\	.	.	.
[2E\	.	.	.
=200	=200	=200	=200
2E\]	0r	1.B	2e/]
2D\	.	.	2f/
1E	.	.	2g/
.	.	2c\	2e/
=201	=201	=201	=201
0r	1r	2d\	2f/
.	.	2B\	2g/
.	[1A	2.c\	1a
.	.	4d\	.
=202	=202	=202	=202
2r	2A/]	1e	0r
1E	2B\	.	.
.	2c\	1r	.
2F\	2A/	.	.
=203	=203	=203	=203
2G\	2B\	0r	0r
2E\	2c\	.	.
2F\	1d	.	.
2G\	.	.	.
=204	=204	=204	=204
1A	1r	1e	1a
1A	1c	2e\	2a/
.	.	[2e\	[2a/
=205	=205	=205	=205
2A\	2c\	2e\]	2a/]
1A	1c	2e\	2a/
.	.	2.e\	1cc
2A\	2c\	.	.
.	.	4f\	.
=206	=206	=206	=206
2G\	2d\	1g	1b
2E\	2e\	.	.
1F	1A	2c\	1a
.	.	2d\	.
=207	=207	=207	=207
0E	1B	0e	0g
.	[1B	.	.
=208	=208	=208	=208
1.E	2B\]	1r	1r
.	2B\	.	.
.	1B	[1e	[1g
2E\	.	.	.
=209	=209	=209	=209
0E	2r	2e\]	2g/]
.	2B\	2e\	2g/
.	2B\	[1e	[1g
.	2G/	.	.
=210	=210	=210	=210
2r	1c	1e]	1g]
2E\	.	.	.
2E\	1B	1r	1r
2D\	.	.	.
=211	=211	=211	=211
1F	1A	1r	0r
1E	1G	2r	.
.	.	2B\	.
=212	=212	=212	=212
1D	2r	2B\	1r
.	2F/	2A/	.
2.C/	2A/	1c	2r
.	[2G/	.	2e/
4D\	.	.	.
=213	=213	=213	=213
4E\	4G/]	1B	2e/
4F\	4A/	.	.
2G\	2B\	.	2d/
2F\	2c\	1A	1f
2D\	2d\	.	.
=214	=214	=214	=214
2E\	2B\	0G	1e
2C/	1c	.	.
1G	.	.	1d
.	2B\	.	.
=215	=215	=215	=215
4C/	1e	1.G	2c/
4D\	.	.	.
4E\	.	.	2cc\
4F\	.	.	.
2G\	2.d\	.	2b\
2F\	.	2A/	[2a/
.	4c\	.	.
=216	=216	=216	=216
2G\	2B\	2B\	4a/]
.	.	.	4g/
4F\	4A/	2c\	1g
4E\	4G/	.	.
1D	1A	1d	.
.	.	.	2f#i/
=217	=217	=217	=217
*M3/1	*M3/1	*M3/1	*M3/1
*met(3)	*met(3)	*met(3)	*met(3)
0GG	0G	0d	0g
1r	1r	1r	1r
=218	=218	=218	=218
1G	1B	1d	1g
1G	1B	1d	1g
1G	1B	1e	1g
=219	=219	=219	=219
0F	0c	0f	0a
1D	1d	1f	1a
=220	=220	=220	=220
1.C	1e	1g	0cc
.	1.e	1.g	.
2D\	.	.	.
2E\	.	.	[1b
2F\	2d\	2f\	.
=221	=221	=221	=221
1G	1B	1d	1b]
1F	1c	0f	0a
1D	1d	.	.
=222	=222	=222	=222
1E	1B	1e	1g
0F	1.A	1c	0a
.	.	1d	.
.	2B\	.	.
=223	=223	=223	=223
1E	1c	1e	1g
0D	0d	1A	0f
.	.	1B	.
=224	=224	=224	=224
0C	1G	1c	0e
.	0c	1G	.
1AA	.	1A	1r
=225	=225	=225	=225
1E	1G	1B	1e
1E	1G	1c	1e
1D	1A	1d	1f
=226	=226	=226	=226
1.C	1c	1.e	0g
.	2C/	.	.
2BB/	2D/	2d\	.
1AA	2E/	1c	1a
.	2F/	.	.
=227	=227	=227	=227
1GG	1.G	1B	1b
0AA	.	0A	0cc
.	4F#i/	.	.
.	4E/	.	.
.	1F#i	.	.
=228	=228	=228	=228
*M2/1	*M2/1	*M2/1	*M2/1
*met(C|)	*met(C|)	*met(C|)	*met(C|)
0GG	1G	2r	0b
.	.	1d	.
.	2r	.	.
.	[2G/	2d\	.
=229	=229	=229	=229
1.C	2G/]	1e	2r
.	2G/	.	1e
.	1A	1c	.
2C/	.	.	2e/
=230	=230	=230	=230
1D	1F	1A	1f
1GG	2.G/	2B\	1d
.	.	2B\	.
.	4F/	.	.
=231	=231	=231	=231
1C	2G/	2.c\	1e
.	2A/	.	.
.	.	4B\	.
2C/	2E/	2G/	2e/
2C/	[2G/	[2c\	2e/
=232	=232	=232	=232
1D	2G/]	2c\]	1f
.	2F/	2B\	.
[1C	1G	2c\	[1e
.	.	2G/	.
=233	=233	=233	=233
0C]	2r	2A/	1e]
.	2G/	2.c\	.
.	2A/	.	2r
.	.	4d\	.
.	[2c\	[2e\	2g/
=234	=234	=234	=234
1r	4c\]	4e\]	2a/
.	4B\	4d\	.
.	1A	2e\	1cc
2r	.	2f\	.
2G\	2G/	2g\	2b\
=235	=235	=235	=235
2A\	2.c\	2.e\	1a
2.c\	.	.	.
.	4d\	4d\	.
.	2e\	4c\	2g/
4B\	.	4d\	.
[2A\	2c\	4e\	[2cc\
.	.	4f\	.
=236	=236	=236	=236
2A\]	1d	1g	4cc\]
.	.	.	4b\
2G\	.	.	1b
1A	1c	2.e\	.
.	.	.	[2a/
.	.	4d\	.
=237	=237	=237	=237
1E	2r	2.c\	2a/]
.	2G/	.	2g/
.	.	4B\	.
2r	2A/	2A/	2f/
2C/	2c\	2G/	2e/
=238	=238	=238	=238
2D\	2B\	2.A/	2r
2.F\	2.A/	.	2c/
.	.	4G/	.
.	.	4F/	2d/
4E\	4G/	4E/	.
[2D\	4F/	2D/	[2f/
.	4E/	.	.
=239	=239	=239	=239
2D\]	2D/	1.A	4f/]
.	.	.	4e/
2C/	2E/	.	1e
1D	1F	.	.
.	.	2B\	2d/
=240	=240	=240	=240
1AA	[0El	1c	[0el
2r	.	1B	.
2GG/	.	.	.
=241	=241	=241	=241
2AA/	0E_	2r	0e_
2.C/	.	2G/	.
.	.	2A/	.
4BB/	.	.	.
[2AA/	.	[2c\	.
=242	=242	=242	=242
2AA/]	0E_	2c\]	0e_
2GG/	.	2B\	.
1AA	.	1A	.
=243	=243	=243	=243
0El	0E]	0G#l	0e]
==	==	==	==
*-	*-	*-	*-
!!!RDF**kern: l=long note in original notation
!!!RDF**kern: i=editorial accidental
!!!RDF**kern: V=start of tuplet marker
!!!RDF**kern: Z=end of tuplet marker
!!!ENC:	Megan K. Eagen 22/08/2012
!!!END:	2012/08/22/
!!!EED:	Jesse Rodin
!!!EEV:	2012/08/29/
!!attribution-level@Jos: 5 (doubtful)
!!!ONB:	Translated from MusicXML and edited on 2012/08/29/ by Craig Sapp
!!muse2ps: C^Verdelot/Josquin?\n@{SCT}^i2I150v85,85,85,150Q8c120
